!!!OTL: 578. Die Soldatenbraut.
!!!COM: Volksweise
!!!ODT: 1850
!!!ARE: Europa, Mitteleuropa, Deutschland
!!!SCT: B0578
!!!TXL: @@DE
!!!YEM: Copyright 1995, estate of Helmut Schaffrath.
**kern	**text
*ICvox	*
*Ivox	*
*clefG2	*
*M6/8	*
*k[]	*
*C:	*
!LO:TX:a:t=Naiv.	!
{8g	Ach
=1	=1
8.g	wenns
16a	nur
8g	der
8ff	Kö-
8a	-nig
8b	auch
=2	=2
4cc	wüßt',
8r	.
4r}	.
{8cc	wie
=3	=3
(8ccq	.
8b)	wa-
8a	-cker
8b	mein
8cc	Schä-
8e	-tʒe-
8f#	-lein
=4	=4
4g	iſt!
8r	.
4r}	.
{16g	Für
16g	den
=5	=5
8.a	Kö-
16g	-nig
8f	da
8.b	ließ'
16a	er
8g	ſein
=6	=6
4cc	Blut,
8r}	.
{4.dd^	für
=7	=7
8ee	mich
8b	a-
8cc	-ber
8.dd	e-
16a	-ben
8b	ſo
=8	=8
4.cc	gut.
4r}	.
==	==
!!!AGN: Staende -, Soldaten - Lied
!!!GTL: Soldatenlieder
!!!ONB: ESAC (Essen Associative Code) Database: BOEHME
!!!AMT: compound duple
!!!AIN: vox
!!!EED: Helmut Schaffrath
!!!EEV: 1.0
!!Volksweiſe um 1850. Schubert, Concordia III, 366 und Reichs-Commersb. 1875.
!!@@COMMENT:"Gedicht von Eduard Möricke, ʒuerſt in deſſen Gedichten. Stuttgart und Tübingen 1838.
!!S. 192. Mel. von Silcher VII. Nr. 1, um 1840 komponirt. Die hier ſtehende iſt Volksweiſe.
!!Bekannt iſt auch die Kompoſition von R. Schumann 1847 (op. 64. 1)."
!!@@END:
!!!Text: E. Möricke
!!!URL-scan: https://archive.org/details/BoehmeVtLieder1895/page/n459/mode/2up
!!!ENC: Anna Maria Matuszewska
!!!EEV: 2024/12/07
*-	*-
